; generated by Slic3r 1.3.1-dev on 2019-04-28 at 11:10:39

; Print Config Notes: 
; DMF_3D_0.3mmThin222R25%
; 
; external perimeters extrusion width = 0.60mm (4.82mm^3/s)
; perimeters extrusion width = 0.54mm (5.71mm^3/s)
; infill extrusion width = 1.20mm (13.63mm^3/s)
; solid infill extrusion width = 0.51mm (5.35mm^3/s)
; top infill extrusion width = 0.51mm (5.35mm^3/s)

M107
M190 S70 ; set bed temperature and wait for it to be reached
M104 S220 ; set temperature
G28 ; home all axes
; Filament gcode

M109 S220 ; set temperature and wait for it to be reached
G21 ; set units to millimeters
G90 ; use absolute coordinates
M82 ; use absolute distances for extrusion
G92 E0
G1 E-0.60000 F900.00000
G92 E0
G1 Z0.300 F4500.000
G1 X90.842 Y51.081 F4500.000
G1 E0.70000 F900.00000
G1 F1920
G1 X108.520 Y33.403 E2.37014
G1 X110.121 Y32.362 E2.49769
G1 X111.128 Y32.100 E2.56723
G1 X111.988 Y31.981 E2.62522
G1 X112.761 Y31.940 E2.67692
G1 X113.229 Y31.960 E2.70822
G1 X113.674 Y32.009 E2.73812
G1 X114.137 Y32.094 E2.76956
G1 X114.584 Y32.208 E2.80041
G1 X115.021 Y32.354 E2.83121
G1 X115.448 Y32.530 E2.86206
G1 X115.861 Y32.735 E2.89285
G1 X116.259 Y32.968 E2.92369
G1 X116.641 Y33.229 E2.95455
G1 X117.000 Y33.514 E2.98517
G1 X117.342 Y33.826 E3.01611
G1 X182.494 Y98.978 E9.17153
G1 X183.007 Y99.568 E9.22374
G1 X183.275 Y99.942 E9.25449
G1 X183.510 Y100.322 E9.28430
G1 X183.724 Y100.730 E9.31510
G1 X183.915 Y101.165 E9.34681
G1 X184.156 Y101.890 E9.39787
G1 X198.475 Y155.372 E13.09663
G1 X198.574 Y155.990 E13.13841
G1 X198.610 Y156.451 E13.16931
G1 X198.612 Y156.925 E13.20093
G1 X198.584 Y157.372 E13.23089
G1 X198.523 Y157.827 E13.26154
G1 X198.347 Y158.589 E13.31378
G1 X198.201 Y159.027 E13.34465
G1 X198.025 Y159.456 E13.37560
G1 X197.738 Y160.017 E13.41770
G1 X197.511 Y160.382 E13.44645
G1 X197.242 Y160.758 E13.47732
G1 X196.948 Y161.113 E13.50812
G1 X196.631 Y161.446 E13.53884
G1 X196.041 Y161.959 E13.59102
G1 X195.548 Y162.304 E13.63123
G1 X194.866 Y162.682 E13.68336
G1 X194.307 Y162.919 E13.72388
G1 X175.332 Y169.569 E15.06714
G1 X174.575 Y169.782 E15.11965
G1 X174.102 Y169.868 E15.15180
G1 X173.664 Y169.917 E15.18123
G1 X172.880 Y169.930 E15.23360
G1 X172.430 Y169.896 E15.26373
G1 X171.995 Y169.833 E15.29315
G1 X171.380 Y169.693 E15.33524
G1 X170.941 Y169.553 E15.36607
G1 X170.513 Y169.384 E15.39678
G1 X169.815 Y169.028 E15.44910
G1 X169.425 Y168.780 E15.48000
G1 X169.055 Y168.508 E15.51067
G1 X168.704 Y168.209 E15.54146
G1 X168.387 Y167.900 E15.57105
G1 X168.080 Y167.556 E15.60187
G1 X167.791 Y167.182 E15.63341
G1 X90.331 Y56.987 E24.63183
G1 X89.581 Y55.232 E24.75938
G1 X89.606 Y53.323 E24.88693
G1 X90.813 Y51.133 E25.05396
G1 X91.221 Y51.459 F4500.000
G1 F1920
G1 X108.899 Y33.782 E26.72410
G1 X111.203 Y32.630 E26.89622
G1 X112.334 Y32.488 E26.97231
G1 X112.752 Y32.476 E27.00026
G1 X113.182 Y32.493 E27.02901
G1 X113.591 Y32.538 E27.05652
G1 X114.016 Y32.616 E27.08538
G1 X114.427 Y32.721 E27.11373
G1 X114.830 Y32.854 E27.14204
G1 X115.222 Y33.015 E27.17038
G1 X115.602 Y33.203 E27.19867
G1 X115.968 Y33.417 E27.22701
G1 X116.318 Y33.657 E27.25537
G1 X116.649 Y33.918 E27.28351
G1 X116.963 Y34.205 E27.31194
G1 X182.116 Y99.357 E33.46736
G1 X182.579 Y99.891 E33.51458
G1 X182.826 Y100.234 E33.54284
G1 X183.042 Y100.583 E33.57027
G1 X183.240 Y100.958 E33.59858
G1 X183.415 Y101.357 E33.62768
G1 X183.639 Y102.029 E33.67497
G1 X197.950 Y155.478 E37.37143
G1 X198.043 Y156.055 E37.41052
G1 X198.075 Y156.479 E37.43891
G1 X198.077 Y156.914 E37.46794
G1 X198.050 Y157.325 E37.49550
G1 X197.994 Y157.743 E37.52367
G1 X197.835 Y158.432 E37.57092
G1 X197.701 Y158.835 E37.59929
G1 X197.540 Y159.229 E37.62772
G1 X197.271 Y159.754 E37.66710
G1 X197.062 Y160.091 E37.69359
G1 X196.814 Y160.436 E37.72195
G1 X196.544 Y160.762 E37.75026
G1 X196.252 Y161.067 E37.77848
G1 X195.719 Y161.531 E37.82568
G1 X195.257 Y161.855 E37.86339
G1 X194.639 Y162.197 E37.91054
G1 X194.116 Y162.419 E37.94852
G1 X175.155 Y169.063 E39.29075
G1 X174.591 Y169.229 E39.33001
G1 X174.020 Y169.339 E39.36882
G1 X173.615 Y169.383 E39.39604
G1 X173.195 Y169.400 E39.42416
G1 X172.769 Y169.388 E39.45263
G1 X172.348 Y169.346 E39.48089
G1 X171.932 Y169.276 E39.50907
G1 X171.519 Y169.175 E39.53746
G1 X171.115 Y169.047 E39.56579
G1 X170.722 Y168.891 E39.59402
G1 X170.091 Y168.569 E39.64134
G1 X169.732 Y168.342 E39.66973
G1 X169.392 Y168.092 E39.69792
G1 X169.069 Y167.818 E39.72621
G1 X168.777 Y167.533 E39.75344
G1 X168.495 Y167.217 E39.78176
G1 X168.229 Y166.874 E39.81073
G1 X90.769 Y56.679 E48.80914
G1 X90.086 Y55.021 E48.92896
G1 X90.182 Y53.230 E49.04878
G1 X91.191 Y51.511 E49.18191
G1 X91.600 Y51.838 F4500.000
G1 F1920
G1 X109.278 Y34.160 E50.85205
G1 X111.279 Y33.160 E51.00152
G1 X112.362 Y33.023 E51.07443
G1 X112.743 Y33.011 E51.09993
G1 X113.135 Y33.027 E51.12612
G1 X113.509 Y33.068 E51.15123
G1 X113.896 Y33.138 E51.17753
G1 X114.271 Y33.233 E51.20337
G1 X114.638 Y33.354 E51.22918
G1 X114.996 Y33.501 E51.25502
G1 X115.342 Y33.672 E51.28082
G1 X115.676 Y33.867 E51.30666
G1 X115.996 Y34.085 E51.33252
G1 X116.297 Y34.323 E51.35818
G1 X116.584 Y34.583 E51.38409
G1 X181.737 Y99.736 E57.53952
G1 X182.152 Y100.213 E57.58175
G1 X182.377 Y100.526 E57.60752
G1 X182.575 Y100.845 E57.63257
G1 X182.755 Y101.186 E57.65838
G1 X182.915 Y101.549 E57.68488
G1 X183.121 Y102.167 E57.72840
G1 X197.425 Y155.583 E61.42255
G1 X197.511 Y156.121 E61.45895
G1 X197.540 Y156.507 E61.48484
G1 X197.541 Y156.903 E61.51127
G1 X197.516 Y157.278 E61.53643
G1 X197.465 Y157.660 E61.56212
G1 X197.323 Y158.276 E61.60439
G1 X197.201 Y158.644 E61.63025
G1 X197.054 Y159.003 E61.65616
G1 X196.804 Y159.491 E61.69281
G1 X196.613 Y159.799 E61.71705
G1 X196.387 Y160.113 E61.74291
G1 X196.140 Y160.410 E61.76871
G1 X195.873 Y160.689 E61.79445
G1 X195.396 Y161.103 E61.83667
G1 X194.965 Y161.406 E61.87187
G1 X194.413 Y161.712 E61.91404
G1 X193.924 Y161.919 E61.94948
G1 X174.978 Y168.558 E63.29068
G1 X174.470 Y168.707 E63.32600
G1 X173.939 Y168.810 E63.36216
G1 X173.569 Y168.850 E63.38703
G1 X173.185 Y168.865 E63.41267
G1 X172.797 Y168.853 E63.43862
G1 X172.413 Y168.815 E63.46440
G1 X172.034 Y168.750 E63.49009
G1 X171.658 Y168.658 E63.51597
G1 X171.289 Y168.540 E63.54181
G1 X170.932 Y168.398 E63.56754
G1 X170.367 Y168.110 E63.60988
G1 X170.039 Y167.903 E63.63575
G1 X169.729 Y167.675 E63.66145
G1 X169.435 Y167.426 E63.68725
G1 X169.168 Y167.166 E63.71213
G1 X168.910 Y166.878 E63.73795
G1 X168.667 Y166.566 E63.76434
G1 X91.207 Y56.371 E72.76275
G1 X90.597 Y54.817 E72.87431
G1 X90.768 Y53.156 E72.98586
G1 X91.568 Y51.889 E73.08598
G1 E72.48598 F900.00000
G92 E0
G1 X172.347 Y164.162 F4500.000
G1 E0.70000 F900.00000
G1 F1920
G1 X172.176 Y163.950 E0.71816
G1 X172.041 Y163.656 E0.73977
G1 X160.394 Y120.193 E3.74580
G1 X160.349 Y119.858 E3.76839
G1 X160.382 Y119.588 E3.78655
G1 X160.494 Y119.300 E3.80719
G1 X160.586 Y119.158 E3.81847
G1 X160.831 Y118.867 E3.84392
G1 X160.998 Y117.648 E3.92610
G1 X161.041 Y116.817 E3.98167
G1 X161.027 Y115.991 E4.03686
G1 X160.955 Y115.168 E4.09205
G1 X160.826 Y114.352 E4.14724
G1 X160.640 Y113.547 E4.20244
G1 X160.397 Y112.753 E4.25790
G1 X160.102 Y111.986 E4.31281
G1 X159.753 Y111.237 E4.36801
G1 X159.353 Y110.515 E4.42320
G1 X158.903 Y109.822 E4.47839
G1 X158.405 Y109.162 E4.53358
G1 X157.863 Y108.539 E4.58877
G1 X157.279 Y107.954 E4.64396
G1 X156.656 Y107.412 E4.69915
G1 X155.996 Y106.915 E4.75434
G1 X155.303 Y106.465 E4.80953
G1 X154.581 Y106.065 E4.86473
G1 X153.832 Y105.716 E4.91992
G1 X153.060 Y105.419 E4.97512
G1 X152.266 Y105.177 E5.03058
G1 X151.466 Y104.992 E5.08549
G1 X150.650 Y104.863 E5.14068
G1 X149.827 Y104.791 E5.19587
G1 X149.001 Y104.776 E5.25106
G1 X148.170 Y104.820 E5.30664
G1 X146.968 Y104.984 E5.38769
G1 X146.593 Y105.276 E5.41942
G1 X146.370 Y105.390 E5.43614
G1 X146.136 Y105.453 E5.45235
G1 X145.879 Y105.466 E5.46952
G1 X145.747 Y105.450 E5.47839
G1 X145.501 Y105.375 E5.49558
G1 X145.276 Y105.250 E5.51276
G1 X145.173 Y105.166 E5.52163
G1 X145.004 Y104.972 E5.53881
G1 X144.880 Y104.747 E5.55599
G1 X144.836 Y104.622 E5.56487
G1 X144.796 Y104.368 E5.58205
G1 X144.809 Y104.126 E5.59824
G1 X144.872 Y103.891 E5.61444
G1 X144.985 Y103.668 E5.63117
G1 X145.277 Y103.294 E5.66290
G1 X145.442 Y102.092 E5.74395
G1 X145.485 Y101.261 E5.79952
G1 X145.471 Y100.435 E5.85471
G1 X145.399 Y99.612 E5.90990
G1 X145.269 Y98.796 E5.96510
G1 X145.084 Y97.991 E6.02029
G1 X144.842 Y97.201 E6.07548
G1 X144.546 Y96.430 E6.13068
G1 X144.195 Y95.677 E6.18614
G1 X143.796 Y94.958 E6.24105
G1 X143.346 Y94.265 E6.29624
G1 X142.849 Y93.606 E6.35143
G1 X142.307 Y92.982 E6.40662
G1 X141.723 Y92.398 E6.46182
G1 X141.099 Y91.856 E6.51701
G1 X140.440 Y91.359 E6.57220
G1 X139.747 Y90.909 E6.62739
G1 X139.024 Y90.508 E6.68258
G1 X138.275 Y90.159 E6.73778
G1 X137.504 Y89.863 E6.79297
G1 X136.714 Y89.622 E6.84816
G1 X135.909 Y89.436 E6.90335
G1 X135.093 Y89.306 E6.95854
G1 X134.270 Y89.235 E7.01373
G1 X133.444 Y89.220 E7.06892
G1 X132.613 Y89.264 E7.12449
G1 X131.411 Y89.428 E7.20554
G1 X131.037 Y89.720 E7.23728
G1 X130.801 Y89.840 E7.25498
G1 X130.674 Y89.879 E7.26386
G1 X130.418 Y89.910 E7.28104
G1 X130.162 Y89.888 E7.29822
G1 X130.020 Y89.850 E7.30807
G1 X129.884 Y89.792 E7.31793
G1 X129.668 Y89.652 E7.33510
G1 X129.497 Y89.481 E7.35131
G1 X129.365 Y89.277 E7.36750
G1 X129.278 Y89.051 E7.38370
G1 X129.240 Y88.811 E7.39990
G1 X129.253 Y88.569 E7.41609
G1 X129.315 Y88.335 E7.43229
G1 X129.429 Y88.112 E7.44901
G1 X129.721 Y87.737 E7.48075
G1 X129.885 Y86.535 E7.56180
G1 X129.929 Y85.705 E7.61737
G1 X129.914 Y84.879 E7.67256
G1 X129.842 Y84.056 E7.72775
G1 X129.713 Y83.240 E7.78295
G1 X129.527 Y82.435 E7.83814
G1 X129.286 Y81.645 E7.89333
G1 X128.990 Y80.873 E7.94852
G1 X128.640 Y80.125 E8.00371
G1 X128.240 Y79.402 E8.05890
G1 X127.790 Y78.709 E8.11409
G1 X127.293 Y78.049 E8.16929
G1 X126.751 Y77.426 E8.22448
G1 X126.167 Y76.842 E8.27967
G1 X125.543 Y76.300 E8.33486
G1 X124.883 Y75.802 E8.39005
G1 X124.190 Y75.353 E8.44524
G1 X123.468 Y74.952 E8.50043
G1 X122.719 Y74.603 E8.55563
G1 X121.948 Y74.307 E8.61082
G1 X121.158 Y74.065 E8.66601
G1 X120.353 Y73.879 E8.72120
G1 X119.537 Y73.750 E8.77639
G1 X118.714 Y73.678 E8.83158
G1 X117.888 Y73.664 E8.88677
G1 X117.057 Y73.707 E8.94234
G1 X115.855 Y73.871 E9.02339
G1 X115.469 Y74.173 E9.05611
G1 X115.333 Y74.248 E9.06649
G1 X115.195 Y74.301 E9.07634
G1 X114.928 Y74.353 E9.09451
G1 X114.796 Y74.355 E9.10338
G1 X114.527 Y74.312 E9.12154
G1 X114.401 Y74.269 E9.13041
G1 X114.176 Y74.144 E9.14759
G1 X113.993 Y73.985 E9.16379
G1 X113.848 Y73.792 E9.17999
G1 X113.745 Y73.572 E9.19619
G1 X113.687 Y73.321 E9.21337
G1 X113.680 Y73.189 E9.22224
G1 X113.712 Y72.934 E9.23942
G1 X113.795 Y72.692 E9.25647
G1 X113.992 Y72.340 E9.28341
G1 X114.070 Y71.253 E9.35626
G1 X114.058 Y70.558 E9.40266
G1 X113.998 Y69.874 E9.44853
G1 X113.890 Y69.196 E9.49440
G1 X113.736 Y68.527 E9.54026
G1 X113.535 Y67.871 E9.58612
G1 X113.289 Y67.230 E9.63198
G1 X112.999 Y66.608 E9.67785
G1 X112.666 Y66.007 E9.72372
G1 X112.292 Y65.431 E9.76959
G1 X111.879 Y64.883 E9.81545
G1 X111.429 Y64.365 E9.86131
G1 X110.943 Y63.879 E9.90718
G1 X110.425 Y63.429 E9.95305
G1 X109.877 Y63.016 E9.99891
G1 X109.301 Y62.642 E10.04478
G1 X108.701 Y62.309 E10.09064
G1 X108.078 Y62.019 E10.13651
G1 X107.437 Y61.773 E10.18237
G1 X106.781 Y61.572 E10.22824
G1 X106.112 Y61.418 E10.27410
G1 X105.434 Y61.310 E10.31997
G1 X104.750 Y61.250 E10.36584
G1 X104.055 Y61.238 E10.41224
G1 X102.968 Y61.316 E10.48509
G1 X102.603 Y61.521 E10.51301
G1 X102.467 Y61.573 E10.52273
G1 X102.200 Y61.625 E10.54089
G1 X102.068 Y61.627 E10.54976
G1 X101.799 Y61.584 E10.56793
G1 X101.515 Y61.463 E10.58857
G1 X101.382 Y61.370 E10.59940
G1 X101.162 Y61.133 E10.62101
G1 X101.015 Y60.845 E10.64262
G1 X100.952 Y60.523 E10.66453
G1 X100.956 Y60.013 E10.69862
G1 X95.282 Y54.338 E11.23473
G1 X112.067 Y37.553 E12.82056
G1 X112.461 Y37.416 E12.84840
G1 X112.701 Y37.387 E12.86456
G1 X112.942 Y37.408 E12.88072
G1 X113.188 Y37.483 E12.89790
G1 X113.306 Y37.543 E12.90677
G1 X113.535 Y37.716 E12.92592
G1 X178.615 Y102.796 E19.07451
G1 X178.717 Y102.922 E19.08534
G1 X178.849 Y103.160 E19.10350
G1 X193.139 Y156.450 E22.78937
G1 X193.170 Y156.787 E22.81196
G1 X193.152 Y156.933 E22.82182
G1 X193.073 Y157.193 E22.83994
G1 X192.913 Y157.457 E22.86061
G1 X192.676 Y157.678 E22.88222
G1 X192.359 Y157.837 E22.90593
G1 X173.456 Y164.453 E24.24384
G1 X173.152 Y164.492 E24.26433
G1 X172.882 Y164.458 E24.28249
G1 X172.594 Y164.347 E24.30313
G1 X172.392 Y164.201 E24.31978
G1 E23.71978 F900.00000
G92 E0
G1 X94.524 Y54.338 F4500.000
G1 E0.70000 F900.00000
G1 F1440
G1 X111.775 Y37.087 E2.32982
G1 X112.339 Y36.891 E2.36968
G1 X112.691 Y36.848 E2.39342
G1 X113.044 Y36.879 E2.41709
G1 X113.389 Y36.984 E2.44117
G1 X113.591 Y37.087 E2.45630
G1 X113.887 Y37.310 E2.48108
G1 X179.014 Y102.437 E8.63405
G1 X179.163 Y102.621 E8.64989
G1 X179.340 Y102.941 E8.67431
G1 X179.419 Y103.170 E8.69050
G1 X193.664 Y156.338 E12.36771
G1 X193.702 Y156.578 E12.38390
G1 X193.706 Y156.815 E12.39974
G1 X193.678 Y157.045 E12.41523
G1 X193.571 Y157.394 E12.43960
G1 X193.466 Y157.601 E12.45513
G1 X193.330 Y157.795 E12.47097
G1 X193.168 Y157.969 E12.48681
G1 X192.984 Y158.118 E12.50265
G1 X192.781 Y158.240 E12.51848
G1 X192.552 Y158.337 E12.53507
G1 X173.597 Y164.972 E13.87673
G1 X173.365 Y165.017 E13.89251
G1 X173.133 Y165.029 E13.90800
G1 X172.770 Y164.984 E13.93242
G1 X172.549 Y164.917 E13.94791
G1 X172.334 Y164.816 E13.96375
G1 X172.135 Y164.687 E13.97959
G1 X171.960 Y164.535 E13.99508
G1 X171.730 Y164.251 E14.01950
G1 X171.618 Y164.048 E14.03498
G1 X171.531 Y163.822 E14.05117
G1 X159.871 Y120.314 E17.06033
G1 X159.824 Y120.071 E17.07687
G1 X159.812 Y119.839 E17.09235
G1 X159.857 Y119.476 E17.11678
G1 X159.924 Y119.254 E17.13226
G1 X160.025 Y119.040 E17.14810
G1 X160.155 Y118.839 E17.16410
G1 X160.322 Y118.641 E17.18140
G1 X160.464 Y117.598 E17.25172
G1 X160.506 Y116.808 E17.30455
G1 X160.492 Y116.019 E17.35724
G1 X160.423 Y115.234 E17.40993
G1 X160.300 Y114.455 E17.46263
G1 X160.122 Y113.686 E17.51532
G1 X159.890 Y112.928 E17.56828
G1 X159.609 Y112.195 E17.62070
G1 X159.276 Y111.481 E17.67339
G1 X158.893 Y110.791 E17.72609
G1 X158.464 Y110.129 E17.77878
G1 X157.989 Y109.499 E17.83147
G1 X157.472 Y108.904 E17.88416
G1 X156.914 Y108.346 E17.93686
G1 X156.319 Y107.829 E17.98955
G1 X155.689 Y107.354 E18.04224
G1 X155.027 Y106.925 E18.09493
G1 X154.337 Y106.542 E18.14763
G1 X153.622 Y106.209 E18.20032
G1 X152.886 Y105.926 E18.25301
G1 X152.128 Y105.695 E18.30597
G1 X151.363 Y105.518 E18.35839
G1 X150.584 Y105.395 E18.41109
G1 X149.799 Y105.326 E18.46378
G1 X149.010 Y105.312 E18.51647
G1 X148.220 Y105.354 E18.56930
G1 X147.183 Y105.495 E18.63921
G1 X146.882 Y105.730 E18.66474
G1 X146.563 Y105.893 E18.68864
G1 X146.220 Y105.985 E18.71237
G1 X145.860 Y106.003 E18.73644
G1 X145.635 Y105.976 E18.75157
G1 X145.291 Y105.870 E18.77564
G1 X144.976 Y105.696 E18.79971
G1 X144.800 Y105.553 E18.81485
G1 X144.563 Y105.281 E18.83892
G1 X144.388 Y104.966 E18.86299
G1 X144.315 Y104.752 E18.87813
G1 X144.258 Y104.396 E18.90220
G1 X144.277 Y104.041 E18.92592
G1 X144.369 Y103.698 E18.94964
G1 X144.531 Y103.380 E18.97355
G1 X144.766 Y103.078 E18.99907
G1 X144.908 Y102.041 E19.06898
G1 X144.949 Y101.252 E19.12182
G1 X144.935 Y100.463 E19.17451
G1 X144.867 Y99.677 E19.22720
G1 X144.743 Y98.898 E19.27989
G1 X144.566 Y98.130 E19.33258
G1 X144.335 Y97.375 E19.38527
G1 X144.053 Y96.639 E19.43797
G1 X143.717 Y95.921 E19.49093
G1 X143.337 Y95.234 E19.54335
G1 X142.907 Y94.573 E19.59604
G1 X142.433 Y93.943 E19.64874
G1 X141.915 Y93.348 E19.70143
G1 X141.357 Y92.790 E19.75412
G1 X140.762 Y92.273 E19.80681
G1 X140.132 Y91.798 E19.85950
G1 X139.471 Y91.368 E19.91219
G1 X138.781 Y90.986 E19.96489
G1 X138.066 Y90.653 E20.01758
G1 X137.330 Y90.370 E20.07027
G1 X136.575 Y90.139 E20.12296
G1 X135.807 Y89.962 E20.17566
G1 X135.028 Y89.838 E20.22835
G1 X134.242 Y89.770 E20.28104
G1 X133.454 Y89.756 E20.33373
G1 X132.664 Y89.797 E20.38656
G1 X131.627 Y89.939 E20.45648
G1 X131.326 Y90.174 E20.48200
G1 X131.002 Y90.339 E20.50626
