; generated by Slic3r 1.3.1-dev on 2019-04-28 at 13:23:09

; Print Config Notes: 
; DMF_3D_0.3mmThin222R25%
; 
; external perimeters extrusion width = 0.60mm (4.82mm^3/s)
; perimeters extrusion width = 0.54mm (5.71mm^3/s)
; infill extrusion width = 1.20mm (13.63mm^3/s)
; solid infill extrusion width = 0.51mm (5.35mm^3/s)
; top infill extrusion width = 0.51mm (5.35mm^3/s)

M107
M190 S70 ; set bed temperature and wait for it to be reached
M104 S220 ; set temperature
G28 ; home all axes
; Filament gcode

M109 S220 ; set temperature and wait for it to be reached
G21 ; set units to millimeters
G90 ; use absolute coordinates
M82 ; use absolute distances for extrusion
G92 E0
G1 E-0.60000 F900.00000
G92 E0
G1 Z0.300 F4500.000
G1 X129.385 Y82.214 F4500.000
G1 E0.70000 F900.00000
G1 F1920
G1 X129.652 Y81.838 E0.73081
G1 X129.944 Y81.482 E0.76159
G1 X130.362 Y81.050 E0.80173
G1 X130.975 Y80.537 E0.85516
G1 X131.340 Y80.285 E0.88479
G1 X131.737 Y80.050 E0.91559
G1 X132.149 Y79.844 E0.94639
G1 X132.575 Y79.667 E0.97719
G1 X133.146 Y79.481 E1.01732
G1 X133.595 Y79.374 E1.04814
G1 X134.050 Y79.299 E1.07893
G1 X134.830 Y79.244 E1.13119
G1 X157.170 Y79.244 E2.62360
G1 X157.630 Y79.265 E2.65440
G1 X158.405 Y79.374 E2.70666
G1 X158.988 Y79.519 E2.74679
G1 X159.723 Y79.787 E2.79907
G1 X160.262 Y80.050 E2.83913
G1 X160.927 Y80.465 E2.89148
G1 X161.398 Y80.834 E2.93147
G1 X161.963 Y81.378 E2.98385
G1 X162.263 Y81.729 E3.01470
G1 X162.537 Y82.097 E3.04536
G1 X162.786 Y82.487 E3.07623
G1 X163.006 Y82.891 E3.10702
G1 X163.198 Y83.311 E3.13783
G1 X163.361 Y83.744 E3.16873
G1 X163.492 Y84.183 E3.19938
G1 X163.593 Y84.635 E3.23033
G1 X163.677 Y85.229 E3.27036
G1 X163.704 Y85.688 E3.30112
G1 X163.699 Y122.451 E5.75707
G1 X163.662 Y122.910 E5.78785
G1 X163.593 Y123.364 E5.81852
G1 X163.404 Y124.124 E5.87085
G1 X163.199 Y124.689 E5.91098
G1 X162.856 Y125.392 E5.96327
G1 X162.537 Y125.901 E6.00337
G1 X162.055 Y126.519 E6.05570
G1 X161.639 Y126.949 E6.09570
G1 X161.291 Y127.256 E6.12672
G1 X160.928 Y127.534 E6.15725
G1 X160.542 Y127.789 E6.18816
G1 X160.138 Y128.016 E6.21911
G1 X159.724 Y128.213 E6.24973
G1 X159.292 Y128.382 E6.28071
G1 X158.854 Y128.519 E6.31136
G1 X158.405 Y128.626 E6.34223
G1 X157.949 Y128.701 E6.37305
G1 X157.493 Y128.744 E6.40368
G1 X134.507 Y128.744 E7.93929
G1 X133.912 Y128.682 E7.97921
G1 X133.146 Y128.519 E8.03158
G1 X132.708 Y128.382 E8.06225
G1 X132.276 Y128.213 E8.09318
G1 X131.738 Y127.950 E8.13319
G1 X131.073 Y127.534 E8.18561
G1 X130.708 Y127.256 E8.21627
G1 X130.361 Y126.950 E8.24717
G1 X129.945 Y126.519 E8.28722
G1 X129.462 Y125.901 E8.33961
G1 X129.144 Y125.392 E8.37964
G1 X128.933 Y124.984 E8.41038
G1 X128.749 Y124.559 E8.44133
G1 X128.596 Y124.125 E8.47202
G1 X128.474 Y123.680 E8.50290
G1 X128.383 Y123.228 E8.53367
G1 X128.323 Y122.771 E8.56446
G1 X128.293 Y122.150 E8.60600
G1 X128.296 Y85.689 E11.04178
G1 X128.323 Y85.229 E11.07258
G1 X128.383 Y84.772 E11.10339
G1 X128.474 Y84.320 E11.13419
G1 X128.596 Y83.875 E11.16499
G1 X128.749 Y83.440 E11.19580
G1 X128.932 Y83.017 E11.22660
G1 X129.144 Y82.608 E11.25740
G1 X129.353 Y82.265 E11.28420
G1 X129.829 Y82.514 F4500.000
G1 F1920
G1 X130.074 Y82.168 E11.31251
G1 X130.342 Y81.840 E11.34080
G1 X130.734 Y81.435 E11.37844
G1 X131.276 Y80.980 E11.42570
G1 X131.624 Y80.739 E11.45401
G1 X131.989 Y80.523 E11.48231
G1 X132.367 Y80.333 E11.51062
G1 X132.758 Y80.170 E11.53892
G1 X133.294 Y79.996 E11.57655
G1 X134.003 Y79.846 E11.62499
G1 X134.407 Y79.800 E11.65212
G1 X134.830 Y79.780 E11.68043
G1 X157.170 Y79.780 E13.17284
G1 X157.593 Y79.800 E13.20115
G1 X158.294 Y79.898 E13.24841
G1 X158.706 Y79.996 E13.27670
G1 X159.110 Y80.122 E13.30500
G1 X159.633 Y80.333 E13.34268
G1 X160.257 Y80.665 E13.38992
G1 X160.725 Y80.981 E13.42759
G1 X161.267 Y81.435 E13.47484
G1 X161.658 Y81.841 E13.51247
G1 X162.093 Y82.397 E13.55965
G1 X162.322 Y82.755 E13.58802
G1 X162.525 Y83.126 E13.61632
G1 X162.702 Y83.511 E13.64462
G1 X162.852 Y83.909 E13.67301
G1 X162.973 Y84.313 E13.70119
G1 X163.066 Y84.728 E13.72962
G1 X163.144 Y85.285 E13.76716
G1 X163.169 Y85.707 E13.79543
G1 X163.169 Y122.293 E16.23956
G1 X163.144 Y122.715 E16.26783
G1 X163.090 Y123.134 E16.29603
G1 X162.973 Y123.687 E16.33377
G1 X162.754 Y124.359 E16.38097
G1 X162.525 Y124.874 E16.41869
G1 X162.322 Y125.245 E16.44694
G1 X162.093 Y125.602 E16.47523
G1 X161.657 Y126.160 E16.52256
G1 X161.267 Y126.564 E16.56008
G1 X160.947 Y126.846 E16.58857
G1 X160.613 Y127.101 E16.61664
G1 X160.258 Y127.334 E16.64504
G1 X159.887 Y127.543 E16.67347
G1 X159.506 Y127.723 E16.70162
G1 X159.109 Y127.878 E16.73008
G1 X158.706 Y128.004 E16.75825
G1 X158.293 Y128.102 E16.78662
G1 X157.875 Y128.171 E16.81494
G1 X157.456 Y128.210 E16.84309
G1 X134.544 Y128.210 E18.37367
G1 X133.987 Y128.151 E18.41112
G1 X133.293 Y128.004 E18.45849
G1 X132.891 Y127.878 E18.48667
G1 X132.494 Y127.723 E18.51510
G1 X131.990 Y127.477 E18.55262
G1 X131.388 Y127.101 E18.60003
G1 X131.052 Y126.845 E18.62821
G1 X130.733 Y126.565 E18.65660
G1 X130.343 Y126.160 E18.69416
G1 X129.906 Y125.601 E18.74154
G1 X129.608 Y125.125 E18.77909
G1 X129.414 Y124.749 E18.80734
G1 X129.245 Y124.358 E18.83577
G1 X129.106 Y123.960 E18.86398
G1 X128.993 Y123.550 E18.89235
G1 X128.910 Y123.135 E18.92063
G1 X128.856 Y122.715 E18.94892
G1 X128.829 Y122.150 E18.98672
G1 X128.831 Y85.708 E21.42124
G1 X128.856 Y85.285 E21.44955
G1 X128.910 Y84.865 E21.47786
G1 X128.993 Y84.449 E21.50616
G1 X129.105 Y84.041 E21.53447
G1 X129.246 Y83.641 E21.56278
G1 X129.414 Y83.252 E21.59108
G1 X129.608 Y82.875 E21.61938
G1 X129.797 Y82.564 E21.64369
G1 X130.273 Y82.813 F4500.000
G1 F1920
G1 X130.496 Y82.498 E21.66950
G1 X130.740 Y82.199 E21.69529
G1 X131.106 Y81.820 E21.73043
G1 X131.605 Y81.403 E21.77388
G1 X131.908 Y81.194 E21.79851
G1 X132.240 Y80.996 E21.82432
G1 X132.585 Y80.822 E21.85013
G1 X132.941 Y80.673 E21.87593
G1 X133.442 Y80.511 E21.91106
G1 X134.078 Y80.377 E21.95449
G1 X134.444 Y80.334 E21.97914
G1 X134.830 Y80.316 E22.00496
G1 X157.170 Y80.316 E23.49737
G1 X157.556 Y80.334 E23.52318
G1 X158.182 Y80.422 E23.56545
G1 X158.558 Y80.511 E23.59125
G1 X158.927 Y80.625 E23.61704
G1 X159.415 Y80.823 E23.65222
G1 X159.973 Y81.120 E23.69447
G1 X160.410 Y81.414 E23.72964
G1 X160.895 Y81.821 E23.77190
G1 X161.260 Y82.199 E23.80703
G1 X161.649 Y82.697 E23.84923
G1 X161.858 Y83.022 E23.87510
G1 X162.044 Y83.361 E23.90090
G1 X162.205 Y83.712 E23.92671
G1 X162.342 Y84.074 E23.95259
G1 X162.453 Y84.443 E23.97828
G1 X162.538 Y84.821 E24.00420
G1 X162.611 Y85.341 E24.03926
G1 X162.633 Y85.726 E24.06503
G1 X162.633 Y122.274 E26.50665
G1 X162.611 Y122.659 E26.53243
G1 X162.563 Y123.041 E26.55814
G1 X162.453 Y123.557 E26.59337
G1 X162.258 Y124.158 E26.63559
G1 X162.043 Y124.640 E26.67080
G1 X161.858 Y124.978 E26.69656
G1 X161.649 Y125.303 E26.72235
G1 X161.259 Y125.802 E26.76468
G1 X160.895 Y126.179 E26.79972
G1 X160.603 Y126.435 E26.82569
G1 X160.298 Y126.668 E26.85129
G1 X159.974 Y126.880 E26.87718
G1 X159.635 Y127.070 E26.90310
G1 X159.288 Y127.234 E26.92877
G1 X158.926 Y127.375 E26.95471
G1 X158.559 Y127.489 E26.98040
G1 X158.182 Y127.578 E27.00626
G1 X157.801 Y127.640 E27.03209
G1 X157.418 Y127.676 E27.05776
G1 X134.582 Y127.676 E28.58332
G1 X134.061 Y127.621 E28.61830
G1 X133.441 Y127.489 E28.66066
G1 X133.074 Y127.375 E28.68636
G1 X132.712 Y127.234 E28.71227
G1 X132.241 Y127.004 E28.74731
G1 X131.703 Y126.668 E28.78971
G1 X131.397 Y126.435 E28.81541
G1 X131.105 Y126.179 E28.84129
G1 X130.741 Y125.802 E28.87636
G1 X130.350 Y125.302 E28.91873
G1 X130.072 Y124.857 E28.95380
G1 X129.895 Y124.514 E28.97955
G1 X129.742 Y124.158 E29.00548
G1 X129.615 Y123.794 E29.03120
G1 X129.513 Y123.421 E29.05706
G1 X129.438 Y123.042 E29.08285
G1 X129.389 Y122.659 E29.10865
G1 X129.364 Y122.150 E29.14270
G1 X129.367 Y85.727 E31.57597
G1 X129.389 Y85.341 E31.60178
G1 X129.438 Y84.958 E31.62759
G1 X129.513 Y84.579 E31.65340
G1 X129.615 Y84.206 E31.67921
G1 X129.742 Y83.841 E31.70502
G1 X129.895 Y83.487 E31.73083
G1 X130.241 Y82.864 E31.77841
G1 E31.17841 F900.00000
G92 E0
G1 X157.664 Y119.116 F4500.000
G1 E0.70000 F900.00000
G1 F720
G1 X157.405 Y119.455 E0.72848
G1 X157.066 Y119.714 E0.75696
G1 X156.673 Y119.877 E0.78543
G1 X156.250 Y119.933 E0.81391
G1 X155.827 Y119.877 E0.84238
G1 X155.446 Y119.719 E0.86995
G1 X155.095 Y119.455 E0.89931
G1 X154.831 Y119.104 E0.92868
G1 X154.673 Y118.723 E0.95625
G1 X154.617 Y118.300 E0.98472
G1 X154.673 Y117.877 E1.01320
G1 X154.836 Y117.483 E1.04168
G1 X155.095 Y117.145 E1.07015
G1 X155.434 Y116.886 E1.09863
G1 X155.827 Y116.723 E1.12711
G1 X156.236 Y116.669 E1.15467
G1 X156.706 Y116.727 E1.18631
G1 X157.069 Y116.888 E1.21285
G1 X157.406 Y117.146 E1.24116
G1 X157.669 Y117.496 E1.27044
G1 X157.827 Y117.877 E1.29800
G1 X157.883 Y118.300 E1.32648
G1 X157.827 Y118.723 E1.35495
G1 X157.687 Y119.061 E1.37943
G1 X157.664 Y119.116 F4500.000
G1 E0.77943 F900.00000
G92 E0
G1 X137.383 Y118.300 F4500.000
G1 E0.70000 F900.00000
G1 F720
G1 X137.327 Y118.723 E0.72848
G1 X137.164 Y119.116 E0.75696
G1 X136.905 Y119.455 E0.78543
G1 X136.566 Y119.714 E0.81391
G1 X136.173 Y119.877 E0.84239
G1 X135.750 Y119.933 E0.87086
G1 X135.327 Y119.877 E0.89934
G1 X134.934 Y119.714 E0.92782
G1 X134.594 Y119.454 E0.95639
G1 X134.331 Y119.104 E0.98566
G1 X134.173 Y118.723 E1.01323
G1 X134.117 Y118.300 E1.04170
G1 X134.173 Y117.877 E1.07018
G1 X134.336 Y117.483 E1.09866
G1 X134.595 Y117.145 E1.12714
G1 X134.934 Y116.886 E1.15561
G1 X135.327 Y116.723 E1.18409
G1 X135.736 Y116.669 E1.21165
G1 X136.171 Y116.722 E1.24092
G1 X136.566 Y116.886 E1.26949
G1 X136.906 Y117.146 E1.29806
G1 X137.169 Y117.496 E1.32734
G1 X137.327 Y117.877 E1.35490
G1 X137.375 Y118.241 E1.37937
G1 X137.383 Y118.300 F4500.000
G1 E0.77937 F900.00000
G92 E0
G1 X135.750 Y93.633 F4500.000
G1 E0.70000 F900.00000
G1 F720
G1 X135.327 Y93.577 E0.72848
G1 X134.934 Y93.414 E0.75695
G1 X134.595 Y93.155 E0.78543
G1 X134.336 Y92.816 E0.81391
G1 X134.173 Y92.423 E0.84238
G1 X134.117 Y91.999 E0.87095
G1 X134.178 Y91.565 E0.90023
G1 X134.336 Y91.184 E0.92779
G1 X134.595 Y90.845 E0.95627
G1 X134.934 Y90.586 E0.98474
G1 X135.327 Y90.423 E1.01322
G1 X135.736 Y90.369 E1.04078
G1 X136.171 Y90.422 E1.07006
G1 X136.566 Y90.586 E1.09863
G1 X136.905 Y90.845 E1.12710
G1 X137.164 Y91.184 E1.15558
G1 X137.327 Y91.577 E1.18406
G1 X137.383 Y92.001 E1.21262
G1 X137.322 Y92.435 E1.24190
G1 X137.164 Y92.816 E1.26946
G1 X136.905 Y93.155 E1.29794
G1 X136.566 Y93.414 E1.32641
G1 X136.173 Y93.577 E1.35489
G1 X135.809 Y93.625 E1.37936
G1 X135.750 Y93.633 F4500.000
G1 E0.77936 F900.00000
G92 E0
G1 X154.617 Y91.999 F4500.000
G1 E0.70000 F900.00000
G1 F720
G1 X154.678 Y91.565 E0.72928
G1 X154.836 Y91.184 E0.75684
G1 X155.095 Y90.845 E0.78531
G1 X155.434 Y90.586 E0.81379
G1 X155.827 Y90.423 E0.84227
G1 X156.236 Y90.369 E0.86983
G1 X156.671 Y90.422 E0.89911
G1 X157.066 Y90.586 E0.92767
G1 X157.405 Y90.845 E0.95615
G1 X157.664 Y91.184 E0.98463
G1 X157.827 Y91.577 E1.01311
G1 X157.883 Y92.001 E1.04167
G1 X157.822 Y92.435 E1.07095
G1 X157.664 Y92.816 E1.09851
G1 X157.405 Y93.155 E1.12699
G1 X157.066 Y93.414 E1.15547
G1 X156.673 Y93.577 E1.18394
G1 X156.250 Y93.633 E1.21242
G1 X155.827 Y93.577 E1.24089
G1 X155.434 Y93.414 E1.26938
G1 X155.095 Y93.155 E1.29785
G1 X154.836 Y92.816 E1.32633
G1 X154.673 Y92.423 E1.35481
G1 X154.625 Y92.058 E1.37937
G1 X154.617 Y91.999 F4500.000
G1 X158.260 Y90.722 F4500.000
G1 F1920
G1 X158.042 Y90.796 E1.39475
G1 X157.787 Y90.463 E1.42278
G1 X157.336 Y90.118 E1.46069
G1 X156.809 Y89.899 E1.49883
G1 X156.234 Y89.829 E1.53753
G1 X155.688 Y89.901 E1.57435
G1 X155.163 Y90.118 E1.61225
G1 X154.713 Y90.463 E1.65015
G1 X154.368 Y90.913 E1.68805
G1 X154.157 Y91.423 E1.72487
G1 X154.076 Y91.996 E1.76356
G1 X154.151 Y92.562 E1.80172
G1 X154.368 Y93.087 E1.83962
G1 X154.713 Y93.537 E1.87751
G1 X155.163 Y93.882 E1.91541
G1 X155.688 Y94.099 E1.95332
G1 X156.250 Y94.173 E1.99121
G1 X156.812 Y94.099 E2.02911
G1 X157.336 Y93.882 E2.06700
G1 X157.787 Y93.537 E2.10491
G1 X158.042 Y93.203 E2.13298
G1 X158.260 Y93.277 E2.14836
G1 X158.264 Y117.030 E3.73518
G1 X158.044 Y117.104 E3.75064
G1 X157.790 Y116.766 E3.77891
G1 X157.345 Y116.425 E3.81634
G1 X156.851 Y116.205 E3.85246
G1 X156.234 Y116.129 E3.89398
G1 X155.688 Y116.201 E3.93081
G1 X155.163 Y116.418 E3.96872
G1 X154.713 Y116.763 E4.00662
G1 X154.368 Y117.213 E4.04452
G1 X154.151 Y117.738 E4.08242
G1 X154.077 Y118.300 E4.12031
G1 X154.151 Y118.862 E4.15821
G1 X154.362 Y119.372 E4.19503
G1 X154.713 Y119.837 E4.23399
G1 X155.178 Y120.188 E4.27294
G1 X155.688 Y120.399 E4.30976
G1 X156.250 Y120.473 E4.34766
G1 X156.812 Y120.399 E4.38556
G1 X157.336 Y120.182 E4.42345
G1 X157.787 Y119.837 E4.46135
G1 X158.046 Y119.499 E4.48981
G1 X158.264 Y119.573 E4.50519
G1 X158.251 Y122.312 E4.68817
G1 X158.162 Y122.623 E4.70979
G1 X157.990 Y122.897 E4.73141
G1 X157.888 Y123.003 E4.74126
G1 X157.668 Y123.163 E4.75942
G1 X157.535 Y123.228 E4.76927
G1 X157.395 Y123.273 E4.77913
G1 X157.111 Y123.313 E4.79828
G1 X134.889 Y123.313 E6.28287
G1 X134.605 Y123.273 E6.30202
G1 X134.465 Y123.228 E6.31187
G1 X134.184 Y123.066 E6.33348
G1 X134.064 Y122.957 E6.34432
G1 X133.881 Y122.708 E6.36495
G1 X133.780 Y122.456 E6.38312
G1 X133.749 Y122.312 E6.39297
G1 X133.736 Y119.569 E6.57622
G1 X133.955 Y119.495 E6.59168
G1 X134.210 Y119.834 E6.62002
G1 X134.663 Y120.182 E6.65818
G1 X135.188 Y120.399 E6.69608
G1 X135.750 Y120.473 E6.73397
G1 X136.312 Y120.399 E6.77187
G1 X136.837 Y120.182 E6.80977
G1 X137.287 Y119.837 E6.84767
G1 X137.632 Y119.387 E6.88557
G1 X137.849 Y118.862 E6.92347
G1 X137.923 Y118.300 E6.96137
G1 X137.849 Y117.738 E6.99926
G1 X137.638 Y117.228 E7.03608
G1 X137.290 Y116.766 E7.07479
G1 X136.837 Y116.418 E7.11294
G1 X136.309 Y116.199 E7.15109
G1 X135.734 Y116.129 E7.18979
G1 X135.188 Y116.201 E7.22660
G1 X134.663 Y116.418 E7.26451
G1 X134.213 Y116.763 E7.30240
G1 X133.954 Y117.102 E7.33090
G1 X133.736 Y117.028 E7.34628
G1 X133.736 Y93.272 E8.93328
G1 X133.954 Y93.198 E8.94866
G1 X134.213 Y93.537 E8.97716
G1 X134.663 Y93.882 E9.01506
G1 X135.188 Y94.099 E9.05296
G1 X135.750 Y94.173 E9.09086
G1 X136.312 Y94.099 E9.12876
G1 X136.837 Y93.882 E9.16666
G1 X137.287 Y93.537 E9.20455
G1 X137.632 Y93.087 E9.24245
G1 X137.843 Y92.577 E9.27927
G1 X137.924 Y92.004 E9.31797
G1 X137.849 Y91.438 E9.35612
G1 X137.632 Y90.913 E9.39402
G1 X137.287 Y90.463 E9.43192
G1 X136.837 Y90.118 E9.46982
G1 X136.309 Y89.899 E9.50797
G1 X135.734 Y89.829 E9.54667
G1 X135.188 Y89.901 E9.58349
G1 X134.663 Y90.118 E9.62139
G1 X134.213 Y90.463 E9.65929
G1 X133.954 Y90.802 E9.68778
G1 X133.736 Y90.728 E9.70317
G1 X133.736 Y85.879 E10.02708
G1 X133.783 Y85.530 E10.05064
G1 X133.906 Y85.249 E10.07112
G1 X134.085 Y85.023 E10.09038
G1 X134.319 Y84.843 E10.11007
G1 X134.605 Y84.727 E10.13071
G1 X134.889 Y84.687 E10.14985
G1 X157.127 Y84.688 E11.63553
G1 X157.379 Y84.724 E11.65253
G1 X157.622 Y84.813 E11.66979
G1 X157.737 Y84.879 E11.67867
G1 X157.934 Y85.044 E11.69585
G1 X158.093 Y85.247 E11.71303
G1 X158.155 Y85.364 E11.72190
G1 X158.239 Y85.623 E11.74006
G1 X158.259 Y85.769 E11.74992
G1 X158.260 Y90.662 E12.07682
G1 X158.796 Y90.722 F4500.000
G1 F1440
G1 X158.800 Y122.140 E14.17567
G1 X158.783 Y122.386 E14.19220
G1 X158.733 Y122.618 E14.20805
G1 X158.652 Y122.841 E14.22388
G1 X158.541 Y123.050 E14.23972
G1 X158.402 Y123.242 E14.25556
G1 X158.241 Y123.409 E14.27104
G1 X157.945 Y123.624 E14.29547
G1 X157.737 Y123.726 E14.31096
G1 X157.516 Y123.797 E14.32644
G1 X157.149 Y123.849 E14.35122
G1 X134.851 Y123.849 E15.84082
G1 X134.484 Y123.797 E15.86560
G1 X134.263 Y123.726 E15.88109
G1 X134.050 Y123.622 E15.89692
G1 X133.854 Y123.489 E15.91276
G1 X133.678 Y123.330 E15.92860
G1 X133.525 Y123.149 E15.94443
G1 X133.402 Y122.952 E15.95992
G1 X133.265 Y122.613 E15.98435
G1 X133.217 Y122.386 E15.99984
G1 X133.200 Y122.140 E16.01637
G1 X133.200 Y85.860 E18.44001
G1 X133.217 Y85.613 E18.45655
G1 X133.267 Y85.382 E18.47238
G1 X133.348 Y85.159 E18.48822
G1 X133.456 Y84.955 E18.50365
G1 X133.693 Y84.655 E18.52921
G1 X133.854 Y84.511 E18.54359
G1 X134.050 Y84.378 E18.55945
G1 X134.263 Y84.274 E18.57528
