; generated by Slic3r 1.3.1-dev on 2019-04-28 at 15:55:58

; Print Config Notes: 
; DMF_3D_0.3mmThin222R25%
; 
; external perimeters extrusion width = 0.60mm (4.82mm^3/s)
; perimeters extrusion width = 0.54mm (5.71mm^3/s)
; infill extrusion width = 1.20mm (13.63mm^3/s)
; solid infill extrusion width = 0.51mm (5.35mm^3/s)
; top infill extrusion width = 0.51mm (5.35mm^3/s)

M107
M190 S70 ; set bed temperature and wait for it to be reached
M104 S220 ; set temperature
G28 ; home all axes
; Filament gcode

M109 S220 ; set temperature and wait for it to be reached
G21 ; set units to millimeters
G90 ; use absolute coordinates
M82 ; use absolute distances for extrusion
G92 E0
G1 E-0.60000 F900.00000
G92 E0
G1 Z0.300 F4500.000
G1 X87.657 Y54.513 F4500.000
G1 E0.70000 F900.00000
G1 F1920
G1 X87.915 Y54.128 E0.73097
G1 X88.200 Y53.760 E0.76205
G1 X88.512 Y53.412 E0.79322
G1 X88.894 Y53.047 E0.82855
G1 X89.349 Y52.677 E0.86774
G1 X89.730 Y52.416 E0.89860
G1 X90.169 Y52.160 E0.93250
G1 X90.574 Y51.962 E0.96262
G1 X91.254 Y51.701 E1.01128
G1 X91.698 Y51.576 E1.04210
G1 X92.160 Y51.480 E1.07363
G1 X92.621 Y51.417 E1.10470
G1 X93.083 Y51.388 E1.13563
G1 X93.555 Y51.391 E1.16718
G1 X94.149 Y51.443 E1.20701
G1 X94.607 Y51.521 E1.23803
G1 X148.110 Y65.844 E4.93823
G1 X148.690 Y66.030 E4.97890
G1 X149.124 Y66.208 E5.01021
G1 X149.658 Y66.480 E5.05029
G1 X150.060 Y66.727 E5.08179
G1 X150.679 Y67.193 E5.13355
G1 X151.022 Y67.506 E5.16457
G1 X216.394 Y132.894 E11.34150
G1 X216.687 Y133.248 E11.37216
G1 X216.959 Y133.628 E11.40342
G1 X217.263 Y134.134 E11.44285
G1 X217.470 Y134.550 E11.47391
G1 X217.648 Y134.982 E11.50512
G1 X217.792 Y135.418 E11.53576
G1 X217.906 Y135.860 E11.56626
G1 X218.028 Y136.628 E11.61821
G1 X218.058 Y137.095 E11.64947
G1 X218.047 Y137.695 E11.68956
G1 X217.901 Y138.872 E11.76884
G1 X217.245 Y140.666 E11.89639
G1 X216.597 Y141.480 E11.96593
G1 X198.920 Y159.158 E13.63606
G1 X197.319 Y160.199 E13.76362
G1 X195.434 Y160.502 E13.89117
G1 X193.013 Y159.669 E14.06220
G1 X82.816 Y82.208 E23.06080
G1 X82.446 Y81.922 E23.09200
G1 X82.103 Y81.616 E23.12269
G1 X81.577 Y81.050 E23.17436
G1 X81.319 Y80.717 E23.20248
G1 X81.062 Y80.335 E23.23322
G1 X80.837 Y79.945 E23.26331
G1 X80.635 Y79.530 E23.29411
G1 X80.384 Y78.876 E23.34095
G1 X80.257 Y78.428 E23.37204
G1 X80.173 Y78.038 E23.39866
G1 X80.077 Y77.254 E23.45144
G1 X80.064 Y76.873 E23.47691
G1 X80.078 Y76.412 E23.50774
G1 X80.123 Y75.955 E23.53842
G1 X80.200 Y75.505 E23.56890
G1 X80.310 Y75.055 E23.59988
G1 X80.431 Y74.668 E23.62693
G1 X87.036 Y55.817 E24.96137
G1 X87.315 Y55.140 E25.01032
G1 X87.627 Y54.564 E25.05401
G1 X88.111 Y54.798 F4500.000
G1 F1920
G1 X88.348 Y54.444 E25.08246
G1 X88.607 Y54.109 E25.11070
G1 X88.895 Y53.786 E25.13965
G1 X89.245 Y53.451 E25.17199
G1 X89.672 Y53.105 E25.20871
G1 X90.022 Y52.865 E25.23706
G1 X90.424 Y52.631 E25.26815
G1 X90.797 Y52.449 E25.29585
G1 X91.413 Y52.213 E25.33994
G1 X91.821 Y52.097 E25.36826
G1 X92.245 Y52.008 E25.39720
G1 X92.668 Y51.951 E25.42575
G1 X93.093 Y51.923 E25.45417
G1 X93.527 Y51.926 E25.48317
G1 X94.083 Y51.975 E25.52050
G1 X94.504 Y52.046 E25.54900
G1 X147.972 Y66.362 E29.24673
G1 X148.500 Y66.530 E29.28375
G1 X148.898 Y66.693 E29.31251
G1 X149.399 Y66.948 E29.35005
G1 X149.768 Y67.175 E29.37902
G1 X150.328 Y67.597 E29.42584
G1 X150.643 Y67.885 E29.45434
G1 X215.990 Y133.245 E35.62877
G1 X216.341 Y133.678 E35.66599
G1 X216.583 Y134.032 E35.69466
G1 X216.800 Y134.403 E35.72334
G1 X217.095 Y135.037 E35.77004
G1 X217.240 Y135.444 E35.79895
G1 X217.384 Y135.981 E35.83605
G1 X217.462 Y136.408 E35.86505
G1 X217.522 Y137.104 E35.91175
G1 X217.520 Y137.527 E35.94003
G1 X217.487 Y137.950 E35.96836
G1 X217.370 Y138.797 E36.02545
G1 X216.219 Y141.102 E36.19757
G1 X198.541 Y158.779 E37.86771
G1 X197.024 Y159.737 E37.98753
G1 X195.244 Y159.950 E38.10735
G1 X193.321 Y159.231 E38.24449
G1 X83.130 Y81.774 E47.24259
G1 X82.785 Y81.507 E47.27172
G1 X82.470 Y81.226 E47.29993
G1 X81.993 Y80.712 E47.34672
G1 X81.756 Y80.406 E47.37261
G1 X81.519 Y80.056 E47.40086
G1 X81.312 Y79.697 E47.42853
G1 X81.126 Y79.316 E47.45684
G1 X80.893 Y78.707 E47.50040
G1 X80.776 Y78.296 E47.52896
G1 X80.699 Y77.936 E47.55353
G1 X80.612 Y77.226 E47.60133
G1 X80.599 Y76.874 E47.62489
G1 X80.612 Y76.450 E47.65322
G1 X80.654 Y76.030 E47.68142
G1 X80.725 Y75.611 E47.70979
G1 X80.825 Y75.203 E47.73790
G1 X80.937 Y74.846 E47.76289
G1 X87.541 Y55.994 E49.09733
G1 X87.801 Y55.366 E49.14272
G1 X88.080 Y54.849 E49.18198
G1 X88.565 Y55.082 F4500.000
G1 F1920
G1 X88.780 Y54.759 E49.20792
G1 X89.016 Y54.454 E49.23367
G1 X89.279 Y54.160 E49.26003
G1 X89.596 Y53.855 E49.28940
G1 X89.994 Y53.533 E49.32364
G1 X90.314 Y53.315 E49.34949
G1 X90.680 Y53.102 E49.37776
G1 X91.020 Y52.936 E49.40305
G1 X91.572 Y52.724 E49.44256
G1 X91.944 Y52.618 E49.46838
G1 X92.330 Y52.537 E49.49475
G1 X92.716 Y52.484 E49.52076
G1 X93.103 Y52.459 E49.54667
G1 X93.499 Y52.461 E49.57313
G1 X94.018 Y52.506 E49.60795
G1 X94.401 Y52.572 E49.63393
G1 X147.833 Y66.879 E53.32919
G1 X148.309 Y67.031 E53.36257
G1 X148.672 Y67.179 E53.38877
G1 X149.139 Y67.417 E53.42378
G1 X149.476 Y67.624 E53.45021
G1 X149.977 Y68.002 E53.49209
G1 X150.264 Y68.263 E53.51808
G1 X215.585 Y133.597 E59.69000
G1 X215.913 Y134.001 E59.72473
G1 X216.134 Y134.324 E59.75090
G1 X216.331 Y134.662 E59.77704
G1 X216.595 Y135.229 E59.81882
G1 X216.726 Y135.596 E59.84484
G1 X216.862 Y136.101 E59.87982
G1 X216.932 Y136.490 E59.90623
G1 X216.987 Y137.113 E59.94802
G1 X216.985 Y137.500 E59.97381
G1 X216.956 Y137.885 E59.99963
G1 X216.840 Y138.721 E60.05603
G1 X215.840 Y140.723 E60.20551
G1 X198.162 Y158.400 E61.87565
G1 X196.736 Y159.269 E61.98720
G1 X195.070 Y159.386 E62.09876
G1 X193.629 Y158.793 E62.20288
G1 X83.436 Y81.335 E71.20109
G1 X83.123 Y81.092 E71.22756
G1 X82.836 Y80.835 E71.25329
G1 X82.562 Y80.552 E71.27962
G1 X82.328 Y80.275 E71.30381
G1 X81.959 Y79.748 E71.34686
G1 X81.617 Y79.102 E71.39566
G1 X81.474 Y78.749 E71.42108
G1 X81.354 Y78.384 E71.44679
G1 X81.261 Y78.016 E71.47215
G1 X81.193 Y77.640 E71.49764
G1 X81.137 Y77.006 E71.54014
G1 X81.162 Y76.296 E71.58762
G1 X81.263 Y75.661 E71.63060
G1 X81.442 Y75.023 E71.67489
G1 X88.047 Y56.171 E73.00932
G1 X88.286 Y55.593 E73.05115
G1 X88.534 Y55.134 E73.08599
G1 E72.48599 F900.00000
G92 E0
G1 X193.869 Y145.598 F4500.000
G1 E0.70000 F900.00000
G1 F720
G1 X194.507 Y145.334 E0.74610
G1 X195.181 Y145.245 E0.79150
G1 X195.873 Y145.333 E0.83813
G1 X196.512 Y145.598 E0.88436
G1 X197.060 Y146.018 E0.93045
G1 X197.480 Y146.565 E0.97654
G1 X197.744 Y147.202 E1.02264
G1 X197.834 Y147.887 E1.06873
G1 X197.744 Y148.571 E1.11482
G1 X197.480 Y149.208 E1.16092
G1 X197.060 Y149.755 E1.20701
G1 X196.512 Y150.176 E1.25311
G1 X195.875 Y150.440 E1.29920
G1 X195.191 Y150.530 E1.34529
G1 X194.507 Y150.440 E1.39139
G1 X193.869 Y150.175 E1.43748
G1 X193.322 Y149.755 E1.48357
G1 X192.902 Y149.208 E1.52966
G1 X192.638 Y148.571 E1.57576
G1 X192.548 Y147.887 E1.62185
G1 X192.638 Y147.203 E1.66794
G1 X192.902 Y146.565 E1.71404
G1 X193.322 Y146.018 E1.76013
G1 X193.822 Y145.634 E1.80222
G1 X194.139 Y146.065 F4500.000
G1 F720
G1 X194.646 Y145.855 E1.83889
G1 X195.182 Y145.785 E1.87496
G1 X195.734 Y145.855 E1.91217
G1 X196.242 Y146.066 E1.94889
G1 X196.678 Y146.400 E1.98556
G1 X197.012 Y146.835 E2.02223
G1 X197.222 Y147.342 E2.05891
G1 X197.293 Y147.887 E2.09558
G1 X197.222 Y148.431 E2.13225
G1 X197.012 Y148.938 E2.16892
G1 X196.678 Y149.373 E2.20559
G1 X196.242 Y149.708 E2.24227
G1 X195.735 Y149.918 E2.27894
G1 X195.191 Y149.989 E2.31561
G1 X194.646 Y149.918 E2.35228
G1 X194.139 Y149.708 E2.38896
G1 X193.704 Y149.373 E2.42563
G1 X193.370 Y148.938 E2.46230
G1 X193.160 Y148.431 E2.49897
G1 X193.088 Y147.887 E2.53564
G1 X193.160 Y147.342 E2.57231
G1 X193.370 Y146.835 E2.60899
G1 X193.704 Y146.400 E2.64566
G1 X194.092 Y146.102 E2.67832
G1 X194.139 Y146.065 F4500.000
G1 E2.07832 F900.00000
G92 E0
G1 X134.834 Y87.530 F4500.000
G1 E0.70000 F900.00000
G1 F720
G1 X134.287 Y87.950 E0.74609
G1 X133.649 Y88.214 E0.79219
G1 X132.963 Y88.304 E0.83841
G1 X132.272 Y88.210 E0.88504
G1 X131.644 Y87.950 E0.93045
G1 X131.096 Y87.530 E0.97654
G1 X130.676 Y86.983 E1.02264
G1 X130.412 Y86.345 E1.06873
G1 X130.322 Y85.661 E1.11482
G1 X130.412 Y84.977 E1.16092
G1 X130.676 Y84.340 E1.20701
G1 X131.096 Y83.792 E1.25311
G1 X131.644 Y83.372 E1.29920
G1 X132.281 Y83.108 E1.34529
G1 X132.955 Y83.019 E1.39070
G1 X133.648 Y83.107 E1.43733
G1 X134.287 Y83.372 E1.48356
G1 X134.834 Y83.792 E1.52965
G1 X135.254 Y84.340 E1.57574
G1 X135.518 Y84.977 E1.62184
G1 X135.608 Y85.661 E1.66793
G1 X135.518 Y86.345 E1.71402
G1 X135.254 Y86.983 E1.76012
G1 X134.871 Y87.482 E1.80220
G1 X134.452 Y87.148 F4500.000
G1 F720
G1 X134.017 Y87.482 E1.83887
G1 X133.510 Y87.692 E1.87555
G1 X132.965 Y87.764 E1.91226
G1 X132.413 Y87.689 E1.94947
G1 X131.914 Y87.482 E1.98554
G1 X131.478 Y87.148 E2.02222
G1 X131.144 Y86.713 E2.05889
G1 X130.934 Y86.205 E2.09556
G1 X130.863 Y85.661 E2.13223
G1 X130.934 Y85.117 E2.16890
G1 X131.144 Y84.610 E2.20558
G1 X131.478 Y84.174 E2.24225
G1 X131.914 Y83.840 E2.27892
G1 X132.421 Y83.630 E2.31559
G1 X132.956 Y83.560 E2.35166
G1 X133.509 Y83.630 E2.38887
G1 X134.017 Y83.840 E2.42559
G1 X134.452 Y84.174 E2.46226
G1 X134.786 Y84.610 E2.49893
G1 X134.996 Y85.117 E2.53561
G1 X135.068 Y85.661 E2.57228
G1 X134.996 Y86.205 E2.60895
G1 X134.786 Y86.713 E2.64562
G1 X134.489 Y87.100 E2.67829
G1 X134.452 Y87.148 F4500.000
G1 E2.07829 F900.00000
G92 E0
G1 X142.682 Y76.425 F4500.000
G1 E0.70000 F900.00000
G1 F720
G1 X142.410 Y76.216 E0.72288
G1 X141.990 Y75.669 E0.76898
G1 X141.726 Y75.031 E0.81508
G1 X141.636 Y74.346 E0.86129
G1 X141.730 Y73.654 E0.90792
G1 X141.990 Y73.026 E0.95333
G1 X142.410 Y72.479 E0.99943
G1 X142.957 Y72.059 E1.04552
G1 X143.595 Y71.794 E1.09161
G1 X144.269 Y71.706 E1.13702
G1 X144.961 Y71.794 E1.18365
G1 X145.601 Y72.058 E1.22988
G1 X146.148 Y72.479 E1.27597
G1 X146.568 Y73.026 E1.32206
G1 X146.832 Y73.663 E1.36816
G1 X146.922 Y74.347 E1.41425
G1 X146.832 Y75.031 E1.46034
G1 X146.568 Y75.669 E1.50644
G1 X146.148 Y76.216 E1.55253
G1 X145.601 Y76.636 E1.59862
G1 X144.963 Y76.900 E1.64472
G1 X144.279 Y76.990 E1.69081
G1 X143.595 Y76.900 E1.73690
G1 X142.957 Y76.636 E1.78300
G1 X142.729 Y76.461 E1.80220
G1 X143.008 Y76.000 F4500.000
G1 F720
G1 X142.792 Y75.834 E1.82038
G1 X142.458 Y75.399 E1.85705
G1 X142.248 Y74.892 E1.89372
G1 X142.176 Y74.347 E1.93044
G1 X142.251 Y73.795 E1.96765
G1 X142.458 Y73.296 E2.00372
G1 X142.792 Y72.861 E2.04039
G1 X143.228 Y72.526 E2.07706
G1 X143.735 Y72.316 E2.11374
G1 X144.270 Y72.246 E2.14980
G1 X144.823 Y72.316 E2.18701
G1 X145.330 Y72.526 E2.22373
G1 X145.766 Y72.861 E2.26040
G1 X146.100 Y73.296 E2.29708
G1 X146.310 Y73.803 E2.33375
G1 X146.382 Y74.347 E2.37042
G1 X146.310 Y74.892 E2.40709
G1 X146.100 Y75.399 E2.44377
G1 X145.766 Y75.834 E2.48044
G1 X145.330 Y76.168 E2.51711
G1 X144.823 Y76.379 E2.55378
G1 X144.279 Y76.450 E2.59045
G1 X143.735 Y76.379 E2.62712
G1 X143.228 Y76.169 E2.66380
G1 X143.056 Y76.037 E2.67829
G1 X142.763 Y76.118 F4500.000
G1 E2.07829 F900.00000
G92 E0
G1 X97.688 Y61.950 F4500.000
G1 E0.70000 F900.00000
G1 F720
G1 X97.424 Y62.587 E0.74610
G1 X97.004 Y63.135 E0.79219
G1 X96.457 Y63.555 E0.83829
G1 X95.819 Y63.819 E0.88439
G1 X95.135 Y63.909 E0.93048
G1 X94.451 Y63.819 E0.97657
G1 X93.814 Y63.555 E1.02266
G1 X93.266 Y63.135 E1.06875
G1 X92.846 Y62.588 E1.11485
G1 X92.582 Y61.950 E1.16094
G1 X92.492 Y61.266 E1.20703
G1 X92.582 Y60.582 E1.25312
G1 X92.846 Y59.944 E1.29922
G1 X93.266 Y59.397 E1.34532
G1 X93.814 Y58.977 E1.39141
G1 X94.451 Y58.713 E1.43751
G1 X95.125 Y58.624 E1.48291
G1 X95.817 Y58.712 E1.52954
G1 X96.457 Y58.977 E1.57577
G1 X97.004 Y59.397 E1.62186
G1 X97.424 Y59.944 E1.66795
G1 X97.688 Y60.582 E1.71405
G1 X97.778 Y61.266 E1.76014
G1 X97.696 Y61.890 E1.80222
G1 X97.166 Y61.810 F4500.000
G1 F720
G1 X96.956 Y62.317 E1.83889
G1 X96.622 Y62.753 E1.87557
G1 X96.187 Y63.087 E1.91224
G1 X95.679 Y63.297 E1.94891
G1 X95.135 Y63.369 E1.98559
G1 X94.591 Y63.297 E2.02226
G1 X94.084 Y63.087 E2.05893
G1 X93.648 Y62.753 E2.09560
G1 X93.314 Y62.317 E2.13227
G1 X93.104 Y61.810 E2.16894
G1 X93.032 Y61.266 E2.20561
G1 X93.104 Y60.722 E2.24228
G1 X93.314 Y60.215 E2.27896
G1 X93.648 Y59.779 E2.31563
G1 X94.084 Y59.445 E2.35230
G1 X94.591 Y59.235 E2.38898
G1 X95.126 Y59.164 E2.42505
G1 X95.679 Y59.235 E2.46225
G1 X96.186 Y59.445 E2.49897
G1 X96.622 Y59.779 E2.53565
G1 X96.956 Y60.215 E2.57231
G1 X97.166 Y60.722 E2.60899
G1 X97.238 Y61.266 E2.64566
G1 X97.174 Y61.751 E2.67832
G1 X97.166 Y61.810 F4500.000
G1 E2.07832 F900.00000
G92 E0
G1 X85.838 Y77.653 F4500.000
G1 E0.70000 F900.00000
G1 F1920
G1 X85.654 Y77.406 E0.72060
G1 X85.543 Y77.123 E0.74091
G1 X85.509 Y76.843 E0.75972
G1 X85.548 Y76.540 E0.78019
G1 X92.163 Y57.642 E2.11778
G1 X92.317 Y57.333 E2.14082
G1 X92.490 Y57.135 E2.15837
G1 X92.738 Y56.961 E2.17863
G1 X92.984 Y56.867 E2.19619
G1 X93.133 Y56.838 E2.20635
G1 X93.284 Y56.830 E2.21648
G1 X93.564 Y56.865 E2.23532
G1 X146.673 Y71.094 E5.90840
G1 X146.844 Y71.153 E5.92054
G1 X147.078 Y71.283 E5.93839
G1 X147.204 Y71.385 E5.94925
G1 X212.295 Y136.476 E12.09882
G1 X212.490 Y136.752 E12.12141
G1 X212.553 Y136.902 E12.13225
G1 X212.613 Y137.209 E12.15316
G1 X212.599 Y137.476 E12.17101
G1 X212.566 Y137.619 E12.18084
G1 X212.443 Y137.938 E12.20371
G1 X195.662 Y154.719 E13.78907
G1 X189.988 Y149.044 E14.32518
G1 X189.477 Y149.048 E14.35927
G1 X189.155 Y148.986 E14.38118
G1 X188.867 Y148.839 E14.40279
G1 X188.741 Y148.737 E14.41362
G1 X188.538 Y148.485 E14.43523
G1 X188.417 Y148.205 E14.45559
G1 X188.373 Y147.933 E14.47405
G1 X188.376 Y147.797 E14.48310
G1 X188.427 Y147.533 E14.50105
G1 X188.480 Y147.397 E14.51079
G1 X188.684 Y147.033 E14.53871
G1 X188.762 Y145.945 E14.61156
G1 X188.750 Y145.250 E14.65796
G1 X188.690 Y144.567 E14.70383
G1 X188.583 Y143.888 E14.74970
G1 X188.428 Y143.219 E14.79556
G1 X188.227 Y142.563 E14.84143
G1 X187.981 Y141.922 E14.88729
G1 X187.691 Y141.300 E14.93315
G1 X187.358 Y140.699 E14.97902
G1 X186.985 Y140.123 E15.02489
G1 X186.571 Y139.575 E15.07075
G1 X186.121 Y139.057 E15.11662
G1 X185.635 Y138.572 E15.16248
G1 X185.117 Y138.121 E15.20835
G1 X184.569 Y137.708 E15.25421
G1 X183.993 Y137.334 E15.30008
G1 X183.448 Y137.032 E15.34169
G1 X182.773 Y136.712 E15.39163
G1 X182.130 Y136.465 E15.43766
G1 X181.473 Y136.264 E15.48353
G1 X180.804 Y136.110 E15.52939
G1 X180.126 Y136.002 E15.57526
G1 X179.442 Y135.943 E15.62113
G1 X178.748 Y135.930 E15.66753
G1 X177.660 Y136.008 E15.74037
G1 X177.308 Y136.206 E15.76731
G1 X177.066 Y136.289 E15.78439
G1 X176.816 Y136.320 E15.80126
G1 X176.678 Y136.313 E15.81047
G1 X176.428 Y136.255 E15.82760
G1 X176.209 Y136.153 E15.84380
G1 X176.015 Y136.007 E15.85999
G1 X175.856 Y135.824 E15.87619
G1 X175.731 Y135.599 E15.89337
G1 X175.688 Y135.473 E15.90227
G1 X175.646 Y135.209 E15.92014
G1 X175.648 Y135.057 E15.93031
G1 X175.671 Y134.912 E15.94012
G1 X175.760 Y134.655 E15.95828
G1 X175.828 Y134.532 E15.96768
G1 X176.129 Y134.145 E16.00040
G1 X176.293 Y132.943 E16.08144
G1 X176.337 Y132.112 E16.13702
G1 X176.322 Y131.286 E16.19221
G1 X176.250 Y130.463 E16.24740
G1 X176.121 Y129.647 E16.30259
G1 X175.935 Y128.843 E16.35778
G1 X175.694 Y128.052 E16.41297
G1 X175.397 Y127.281 E16.46816
G1 X175.048 Y126.532 E16.52336
G1 X174.648 Y125.810 E16.57855
G1 X174.198 Y125.117 E16.63374
G1 X173.701 Y124.457 E16.68893
G1 X173.159 Y123.834 E16.74412
G1 X172.574 Y123.250 E16.79931
G1 X171.951 Y122.708 E16.85450
G1 X171.291 Y122.210 E16.90969
G1 X170.598 Y121.760 E16.96488
G1 X169.923 Y121.386 E17.01647
G1 X169.129 Y121.011 E17.07514
G1 X168.356 Y120.715 E17.13045
G1 X167.566 Y120.473 E17.18564
G1 X166.761 Y120.287 E17.24083
G1 X165.945 Y120.158 E17.29603
G1 X165.122 Y120.086 E17.35121
G1 X164.296 Y120.072 E17.40640
G1 X163.465 Y120.115 E17.46198
G1 X162.263 Y120.279 E17.54303
G1 X161.888 Y120.571 E17.57476
G1 X161.665 Y120.685 E17.59148
G1 X161.431 Y120.748 E17.60769
G1 X161.189 Y120.760 E17.62388
G1 X160.949 Y120.723 E17.64008
G1 X160.723 Y120.636 E17.65628
G1 X160.520 Y120.504 E17.67247
G1 X160.348 Y120.332 E17.68870
